X: 32
T: Mazurka No. 5.	Op. 7
C: Fryderyk Chopin
%%abc-version 2.0
%%abcx-abcm2ps-target-version 5.9.1 (29 Sep 2008)
%%abc-creator hum2abc beta
%%abcx-conversion-date 2021/10/03 11:24:09
%%abc-edited-by Tomasz Sierawski
%%abc-edited-by Jacek Iwaszko
%%abcx-initial-encoding-date 2017-08-10
%%humdrum-veritas 1580385565
%%humdrum-veritas-data 1563253028
%%linebreak <none>
%%barnumbers 0
L: 1/4
M: 3/4
N: Derived from 007-1-KI-005.krn
P: Cinq Mazurkas
Q: "M.M. [half-dot] = 60." 3/4=60
%%staves {1 2}
V: 1 clef=treble
V: 2 clef=bass
K: C
[V:1] z3 | 
[V:2] .[G,G,,].[G,G,,].[G,G,,] | 
[V:1] z3 | 
[V:2] .[G,G,,].[G,G,,].[G,G,,] | 
[V:1] z3 | 
[V:2] .[G,G,,].[G,G,,].[G,G,,] | 
[V:1] z3 ||  
[V:2] .[G,G,,].[G,G,,].[G,G,,] ||  
[V:1] (3d/e/d/!accent!Gc3//e// | 
[V:2] [FB,G,][ECG,]!accent![ECG,] | 
[V:1] (3d/e/d/!accent!Gc3//e// | 
[V:2] .[FB,G,].[ECG,]!accent![ECG,] | 
[V:1] ag/>e/f3//d// | 
[V:2] [FB,G,][FB,G,][FB,G,] | 
[V:1] c/>e/g/>b/d'3//c'// | 
[V:2] C,[ECG,][ECG,] | 
[V:1] (3d/e/d/!accent!Gc3//e// | 
[V:2] [FB,G,].[ECG,]!accent![ECG,] | 
[V:1] (3d/e/d/!accent!Gc3//e// | 
[V:2] [FB,G,].[ECG,]!accent![ECG,] | 
[V:1] ag/>e/f3//d// | 
[V:2] [FB,G,].[FB,G,].[FB,G,] | 
[V:1] c/>d/e/>B/d3//c// | 
[V:2] .C,[ECG,][ECA,] | 
[V:1] (3A/B/A/!accent!DG3//B// | 
[V:2] [C^F,D,].[B,G,D,]!accent![B,G,D,] | 
[V:1] (3A/B/A/!accent!DG3//B// | 
[V:2] [C^F,D,].[B,G,D,]!accent![B,G,D,] | 
[V:1] ed/>B/c3//A// | 
[V:2] [C^F,D,].[CF,D,].[CF,D,] | 
[V:1] G/>B/d/>^f/a3//g// | 
[V:2] .G,,[B,G,D,][B,G,D,] | 
[V:1] (3A/B/A/!accent!DG3//B// | 
[V:2] [C^F,D,].[B,G,D,]!accent![B,G,D,] | 
[V:1] (3A/B/A/!accent!DG3//B// | 
[V:2] [C^F,D,][B,G,D,]!accent![B,G,D,] | 
[V:1] ^fe/>B/c3//A// | 
[V:2] [C^F,D,][CF,D,][CF,D,] | 
[V:1] G/>B/d/>^f/a3//g// ||  
[V:2] .G,,[B,G,D,][B,G,D,] ||
